Newaita-dark/apps/64/smtube.svg

<svg height="64" viewBox="0 0 64 64" width="64" xmlns="http://www.w3.org/2000/svg" xmlns:xlink="http://www.w3.org/1999/xlink"><linearGradient id="a" gradientUnits="userSpaceOnUse" x1="31.75304" x2="31.75304" y1="49.452659" y2="52.09874700006"><stop offset="0" stop-opacity=".27451"/><stop offset="1" stop-opacity="0"/></linearGradient><linearGradient id="b"><stop offset="0" stop-opacity=".313726"/><stop offset=".222222" stop-opacity=".27451"/><stop offset="1" stop-opacity="0"/></linearGradient><radialGradient id="c" cx="450.908936" cy="189.579361" gradientTransform="matrix(.00000035 -.156265 -.281277 -.0000002 106.24586 120.575451)" gradientUnits="userSpaceOnUse" r="21.166656" xlink:href="#b"/><radialGradient id="d" cx="450.908936" cy="189.579361" gradientTransform="matrix(-.00000035 .156265 .281277 .0000002 -42.409041 -21.670171)" gradientUnits="userSpaceOnUse" r="21.166656" xlink:href="#b"/><radialGradient id="e" cx="450.908936" cy="189.579361" gradientTransform="matrix(-.00000035 -.156265 .281277 -.0000002 -42.409041 120.575451)" gradientUnits="userSpaceOnUse" r="21.166656" xlink:href="#b"/><radialGradient id="f" cx="450.908936" cy="189.579361" gradientTransform="matrix(.00000035 .156265 -.281277 .0000002 106.245857 -21.670172)" gradientUnits="userSpaceOnUse" r="21.166656" xlink:href="#b"/><linearGradient id="g" gradientUnits="userSpaceOnUse" x1="31.753048" x2="31.753048" y1="50.77569400006" y2="11.08438199987"><stop offset="0" stop-color="#42a5f5"/><stop offset="1" stop-color="#64b5f6"/></linearGradient><linearGradient id="h" gradientUnits="userSpaceOnUse" x1="31.800142" x2="31.800142" y1="40.84258649998" y2="20.99693300013"><stop offset="0" stop-color="#bdbdbd"/><stop offset="1" stop-color="#e0e0e0"/></linearGradient><path d="m10.253906 49.453125h43.328125v2.644531h-43.328125zm0 0" fill="url(#a)"/><path d="m53.582031 49.453125h5.292969v-2.648437h-5.292969zm0 0" fill="url(#c)"/><path d="m10.253906 49.453125h-5.292968v2.644531h5.292968zm0 0" fill="url(#d)"/><path d="m10.253906 49.453125h-5.292968v-2.648437h5.292968zm0 0" fill="url(#e)"/><path d="m53.582031 49.453125h5.292969v2.644531h-5.292969zm0 0" fill="url(#f)"/><path d="m58.214844 17.699219c-.640625-2.371094-2.507813-4.238281-4.878906-4.878907-4.332032-1.183593-21.660157-1.183593-21.660157-1.183593s-17.324219 0-21.65625 1.136719c-2.324219.640624-4.242187 2.554687-4.878906 4.925781-1.140625 4.332031-1.140625 13.3125-1.140625 13.3125s0 9.03125 1.140625 13.316406c.636719 2.371094 2.507813 4.238281 4.878906 4.878906 4.375 1.183594 21.65625 1.183594 21.65625 1.183594s17.328125 0 21.660157-1.140625c2.371093-.636719 4.238281-2.507812 4.878906-4.875 1.140625-4.332031 1.140625-13.316406 1.140625-13.316406s.042969-9.027344-1.140625-13.359375zm0 0" fill="url(#g)"/><path d="m31.675781 11.25s-17.324219 0-21.65625 1.140625c-2.324219.636719-4.242187 2.550781-4.878906 4.921875-1.140625 4.332031-1.140625 13.316406-1.140625 13.316406s0 .167969.003906.453125c.015625-1.859375.148438-9.105469 1.136719-12.863281.636719-2.371094 2.554687-4.285156 4.878906-4.925781 4.332031-1.136719 21.65625-1.136719 21.65625-1.136719s17.328125-.003906 21.660157 1.183594c2.371093.636718 4.238281 2.507812 4.878906 4.878906 1.003906 3.675781 1.125 10.710938 1.136718 12.765625 0-.160156.003907-.3125.003907-.3125s.042969-9.027344-1.140625-13.359375c-.640625-2.371094-2.507813-4.238281-4.878906-4.878906-4.332032-1.183594-21.660157-1.183594-21.660157-1.183594zm0 0" fill="#fff" fill-opacity=".392157"/><path d="m31.675781 50.445312s-17.324219 0-21.65625-1.140624c-2.324219-.636719-4.242187-2.554688-4.878906-4.925782-1.140625-4.328125-1.140625-13.3125-1.140625-13.3125s0-.167968.003906-.453125c.015625 1.859375.148438 9.105469 1.136719 12.863281.636719 2.371094 2.554687 4.285157 4.878906 4.925782 4.332031 1.136718 21.65625 1.136718 21.65625 1.136718s17.328125 0 21.660157-1.183593c2.371093-.640625 4.238281-2.507813 4.878906-4.878907 1.003906-3.675781 1.125-10.710937 1.136718-12.765624 0 .160156.003907.308593.003907.308593s.042969 9.03125-1.140625 13.359375c-.640625 2.371094-2.507813 4.242188-4.878906 4.878906-4.332032 1.1875-21.660157 1.1875-21.660157 1.1875zm0 0" fill-opacity=".235294"/><path d="m26.550781 21.003906c-.742187-.023437-1.359375.570313-1.359375 1.316406v17.199219c0 1.019531 1.109375 1.652344 1.988282 1.132813l14.550781-8.597656c.863281-.511719.863281-1.757813 0-2.269532l-14.550781-8.597656c-.191407-.113281-.40625-.175781-.628907-.183594zm0 0" fill="url(#h)"/><path d="m26.484375 21.003906c-.714844.011719-1.292969.59375-1.292969 1.316406v.652344c0-.742187.617188-1.339844 1.359375-1.3125.222657.003906.4375.070313.628907.179688l14.550781 8.601562c.324219.191406.527343.484375.605469.804688.136718-.535156-.066407-1.140625-.605469-1.460938l-14.550781-8.597656c-.191407-.113281-.40625-.175781-.628907-.183594-.023437 0-.042969 0-.066406 0zm0 0" fill="#fff" fill-opacity=".960784"/><path d="m26.558594 20.816406c-.847656-.027344-1.554688.65625-1.554688 1.503906v17.199219c0 1.15625 1.273438 1.882813 2.269532 1.296875l14.554687-8.601562c.976563-.578125.976563-2.011719 0-2.589844l-14.554687-8.601562c-.21875-.125-.460938-.199219-.714844-.207032zm-.011719.375c.1875.007813.371094.058594.535156.15625l14.554688 8.601563c.746093.441406.746093 1.5 0 1.941406l-14.554688 8.601563c-.761719.449218-1.703125-.089844-1.703125-.972657v-17.199219c0-.640624.527344-1.148437 1.167969-1.128906zm0 0" fill="#212121"/><path d="m31.675781 11.40625s-4.332031 0-9.210937.144531c-4.875.140625-10.265625.414063-12.503906 1.003907h-.003907c-2.40625.660156-4.375 2.632812-5.035156 5.085937h-.003906c-.578125 2.203125-.859375 5.535156-1.003907 8.328125-.140624 2.792969-.140624 5.042969-.140624 5.042969s0 2.265625.140624 5.0625c.144532 2.800781.425782 6.128906 1.007813 8.3125.65625 2.449219 2.589844 4.378906 5.039063 5.039062 2.261718.613281 7.648437.898438 12.523437 1.046875 4.871094.148438 9.191406.148438 9.191406.148438s4.335938 0 9.210938-.144532c4.878906-.140624 10.269531-.414062 12.507812-1.003906 2.449219-.660156 4.378907-2.589844 5.039063-5.039062v-.003906c.582031-2.203126.863281-5.53125 1.003906-8.328126.144531-2.789062.144531-5.039062.144531-5.042968 0 0 .011719-2.261719-.125-5.066406-.136719-2.804688-.417969-6.144532-1.023437-8.351563-.660156-2.449219-2.589844-4.378906-5.039063-5.039063-2.238281-.613281-7.628906-.898437-12.503906-1.046874-4.878906-.148438-9.214844-.148438-9.214844-.148438zm0 .457031s4.332031 0 9.199219.148438c4.867188.148437 10.308594.457031 12.398438 1.027343l.003906.003907c2.289062.613281 4.097656 2.421875 4.714844 4.714843.582031 2.128907.871093 5.464844 1.007812 8.257813s.125 5.042969.125 5.042969 0 2.242187-.140625 5.023437c-.144531 2.777344-.429687 6.105469-.992187 8.234375-.617188 2.289063-2.425782 4.097656-4.714844 4.714844-2.09375.550781-7.53125.847656-12.402344.988281-4.867188.144531-9.199219.144531-9.199219.144531s-4.316406 0-9.179687-.148437c-4.863282-.148437-10.300782-.457031-12.417969-1.03125-2.292969-.617187-4.101563-2.425781-4.71875-4.714844-.558594-2.105469-.847656-5.429687-.988281-8.21875-.140625-2.785156-.144532-5.039062-.144532-5.039062s.003907-2.238281.144532-5.019531.429687-6.105469.988281-8.234376c.617187-2.289062 2.476563-4.148437 4.71875-4.761718 2.097656-.550782 7.535156-.847656 12.402344-.992188 4.867187-.140625 9.195312-.140625 9.195312-.140625zm0 0" fill="#212121"/><path d="m42.28125 31.613281c-.101562.253907-.285156.480469-.550781.636719l-14.550781 8.601562c-.878907.519532-1.988282-.113281-1.988282-1.132812v.988281c0 1.019531 1.109375 1.652344 1.988282 1.132813l14.550781-8.597656c.597656-.355469.78125-1.058594.550781-1.628907zm0 0" fill-opacity=".235294"/></svg>

<?xml version="1.0" encoding="UTF-8"?>
<svg xmlns="http://www.w3.org/2000/svg" xmlns:xlink="http://www.w3.org/1999/xlink" width="64px" height="64px" viewBox="0 0 64 64" version="1.1">
<defs>
<linearGradient id="linear0" gradientUnits="userSpaceOnUse" x1="254" y1="233.5" x2="254" y2="254.666672" gradientTransform="matrix(0.125012,0,0,0.125012,-0.00000763012,20.262357)">
<stop offset="0" style="stop-color:rgb(0%,0%,0%);stop-opacity:0.27451;"/>
<stop offset="1" style="stop-color:rgb(0%,0%,0%);stop-opacity:0;"/>
</linearGradient>
<radialGradient id="radial0" gradientUnits="userSpaceOnUse" cx="450.908936" cy="189.579361" fx="450.908936" fy="189.579361" r="21.166656" gradientTransform="matrix(0.000000348341,-0.156265,-0.281277,-0.000000203077,106.24586,120.575451)">
<stop offset="0" style="stop-color:rgb(0%,0%,0%);stop-opacity:0.313726;"/>
<stop offset="0.222222" style="stop-color:rgb(0%,0%,0%);stop-opacity:0.27451;"/>
<stop offset="1" style="stop-color:rgb(0%,0%,0%);stop-opacity:0;"/>
</radialGradient>
<radialGradient id="radial1" gradientUnits="userSpaceOnUse" cx="450.908936" cy="189.579361" fx="450.908936" fy="189.579361" r="21.166656" gradientTransform="matrix(-0.000000348341,0.156265,0.281277,0.000000203077,-42.409041,-21.670171)">
<stop offset="0" style="stop-color:rgb(0%,0%,0%);stop-opacity:0.313726;"/>
<stop offset="0.222222" style="stop-color:rgb(0%,0%,0%);stop-opacity:0.27451;"/>
<stop offset="1" style="stop-color:rgb(0%,0%,0%);stop-opacity:0;"/>
</radialGradient>
<radialGradient id="radial2" gradientUnits="userSpaceOnUse" cx="450.908936" cy="189.579361" fx="450.908936" fy="189.579361" r="21.166656" gradientTransform="matrix(-0.000000348341,-0.156265,0.281277,-0.000000203077,-42.409041,120.575451)">
<stop offset="0" style="stop-color:rgb(0%,0%,0%);stop-opacity:0.313726;"/>
<stop offset="0.222222" style="stop-color:rgb(0%,0%,0%);stop-opacity:0.27451;"/>
<stop offset="1" style="stop-color:rgb(0%,0%,0%);stop-opacity:0;"/>
</radialGradient>
<radialGradient id="radial3" gradientUnits="userSpaceOnUse" cx="450.908936" cy="189.579361" fx="450.908936" fy="189.579361" r="21.166656" gradientTransform="matrix(0.000000348341,0.156265,-0.281277,0.000000203077,106.245857,-21.670172)">
<stop offset="0" style="stop-color:rgb(0%,0%,0%);stop-opacity:0.313726;"/>
<stop offset="0.222222" style="stop-color:rgb(0%,0%,0%);stop-opacity:0.27451;"/>
<stop offset="1" style="stop-color:rgb(0%,0%,0%);stop-opacity:0;"/>
</radialGradient>
<linearGradient id="linear1" gradientUnits="userSpaceOnUse" x1="254" y1="191.166672" x2="254" y2="-126.333344" gradientTransform="matrix(0.125012,0,0,0.125012,0,26.877566)">
<stop offset="0" style="stop-color:rgb(25.882354%,64.705884%,96.078432%);stop-opacity:1;"/>
<stop offset="1" style="stop-color:rgb(39.215687%,70.980394%,96.470588%);stop-opacity:1;"/>
</linearGradient>
<linearGradient id="linear2" gradientUnits="userSpaceOnUse" x1="254" y1="53.583332" x2="254" y2="-105.166656" gradientTransform="matrix(0.125012,0,0,0.125012,0.0470941,34.144027)">
<stop offset="0" style="stop-color:rgb(74.117649%,74.117649%,74.117649%);stop-opacity:1;"/>
<stop offset="1" style="stop-color:rgb(87.843138%,87.843138%,87.843138%);stop-opacity:1;"/>
</linearGradient>
</defs>
<g id="surface1">
<path style=" stroke:none;fill-rule:nonzero;fill:url(#linear0);" d="M 10.253906 49.453125 L 53.582031 49.453125 L 53.582031 52.097656 L 10.253906 52.097656 Z M 10.253906 49.453125 "/>
<path style=" stroke:none;fill-rule:nonzero;fill:url(#radial0);" d="M 53.582031 49.453125 L 58.875 49.453125 L 58.875 46.804688 L 53.582031 46.804688 Z M 53.582031 49.453125 "/>
<path style=" stroke:none;fill-rule:nonzero;fill:url(#radial1);" d="M 10.253906 49.453125 L 4.960938 49.453125 L 4.960938 52.097656 L 10.253906 52.097656 Z M 10.253906 49.453125 "/>
<path style=" stroke:none;fill-rule:nonzero;fill:url(#radial2);" d="M 10.253906 49.453125 L 4.960938 49.453125 L 4.960938 46.804688 L 10.253906 46.804688 Z M 10.253906 49.453125 "/>
<path style=" stroke:none;fill-rule:nonzero;fill:url(#radial3);" d="M 53.582031 49.453125 L 58.875 49.453125 L 58.875 52.097656 L 53.582031 52.097656 Z M 53.582031 49.453125 "/>
<path style=" stroke:none;fill-rule:nonzero;fill:url(#linear1);" d="M 58.214844 17.699219 C 57.574219 15.328125 55.707031 13.460938 53.335938 12.820312 C 49.003906 11.636719 31.675781 11.636719 31.675781 11.636719 C 31.675781 11.636719 14.351562 11.636719 10.019531 12.773438 C 7.695312 13.414062 5.777344 15.328125 5.140625 17.699219 C 4 22.03125 4 31.011719 4 31.011719 C 4 31.011719 4 40.042969 5.140625 44.328125 C 5.777344 46.699219 7.648438 48.566406 10.019531 49.207031 C 14.394531 50.390625 31.675781 50.390625 31.675781 50.390625 C 31.675781 50.390625 49.003906 50.390625 53.335938 49.25 C 55.707031 48.613281 57.574219 46.742188 58.214844 44.375 C 59.355469 40.042969 59.355469 31.058594 59.355469 31.058594 C 59.355469 31.058594 59.398438 22.03125 58.214844 17.699219 Z M 58.214844 17.699219 "/>
<path style=" stroke:none;fill-rule:nonzero;fill:rgb(100%,100%,100%);fill-opacity:0.392157;" d="M 31.675781 11.25 C 31.675781 11.25 14.351562 11.25 10.019531 12.390625 C 7.695312 13.027344 5.777344 14.941406 5.140625 17.3125 C 4 21.644531 4 30.628906 4 30.628906 C 4 30.628906 4 30.796875 4.003906 31.082031 C 4.019531 29.222656 4.152344 21.976562 5.140625 18.21875 C 5.777344 15.847656 7.695312 13.933594 10.019531 13.292969 C 14.351562 12.15625 31.675781 12.15625 31.675781 12.15625 C 31.675781 12.15625 49.003906 12.152344 53.335938 13.339844 C 55.707031 13.976562 57.574219 15.847656 58.214844 18.21875 C 59.21875 21.894531 59.339844 28.929688 59.351562 30.984375 C 59.351562 30.824219 59.355469 30.671875 59.355469 30.671875 C 59.355469 30.671875 59.398438 21.644531 58.214844 17.3125 C 57.574219 14.941406 55.707031 13.074219 53.335938 12.433594 C 49.003906 11.25 31.675781 11.25 31.675781 11.25 Z M 31.675781 11.25 "/>
<path style=" stroke:none;fill-rule:nonzero;fill:rgb(0%,0%,0%);fill-opacity:0.235294;" d="M 31.675781 50.445312 C 31.675781 50.445312 14.351562 50.445312 10.019531 49.304688 C 7.695312 48.667969 5.777344 46.75 5.140625 44.378906 C 4 40.050781 4 31.066406 4 31.066406 C 4 31.066406 4 30.898438 4.003906 30.613281 C 4.019531 32.472656 4.152344 39.71875 5.140625 43.476562 C 5.777344 45.847656 7.695312 47.761719 10.019531 48.402344 C 14.351562 49.539062 31.675781 49.539062 31.675781 49.539062 C 31.675781 49.539062 49.003906 49.539062 53.335938 48.355469 C 55.707031 47.714844 57.574219 45.847656 58.214844 43.476562 C 59.21875 39.800781 59.339844 32.765625 59.351562 30.710938 C 59.351562 30.871094 59.355469 31.019531 59.355469 31.019531 C 59.355469 31.019531 59.398438 40.050781 58.214844 44.378906 C 57.574219 46.75 55.707031 48.621094 53.335938 49.257812 C 49.003906 50.445312 31.675781 50.445312 31.675781 50.445312 Z M 31.675781 50.445312 "/>
<path style=" stroke:none;fill-rule:nonzero;fill:url(#linear2);" d="M 26.550781 21.003906 C 25.808594 20.980469 25.191406 21.574219 25.191406 22.320312 L 25.191406 39.519531 C 25.191406 40.539062 26.300781 41.171875 27.179688 40.652344 L 41.730469 32.054688 C 42.59375 31.542969 42.59375 30.296875 41.730469 29.785156 L 27.179688 21.1875 C 26.988281 21.074219 26.773438 21.011719 26.550781 21.003906 Z M 26.550781 21.003906 "/>
<path style=" stroke:none;fill-rule:nonzero;fill:rgb(100%,100%,100%);fill-opacity:0.960784;" d="M 26.484375 21.003906 C 25.769531 21.015625 25.191406 21.597656 25.191406 22.320312 L 25.191406 22.972656 C 25.191406 22.230469 25.808594 21.632812 26.550781 21.660156 C 26.773438 21.664062 26.988281 21.730469 27.179688 21.839844 L 41.730469 30.441406 C 42.054688 30.632812 42.257812 30.925781 42.335938 31.246094 C 42.472656 30.710938 42.269531 30.105469 41.730469 29.785156 L 27.179688 21.1875 C 26.988281 21.074219 26.773438 21.011719 26.550781 21.003906 C 26.527344 21.003906 26.507812 21.003906 26.484375 21.003906 Z M 26.484375 21.003906 "/>
<path style=" stroke:none;fill-rule:nonzero;fill:rgb(12.941177%,12.941177%,12.941177%);fill-opacity:1;" d="M 26.558594 20.816406 C 25.710938 20.789062 25.003906 21.472656 25.003906 22.320312 L 25.003906 39.519531 C 25.003906 40.675781 26.277344 41.402344 27.273438 40.816406 L 41.828125 32.214844 C 42.804688 31.636719 42.804688 30.203125 41.828125 29.625 L 27.273438 21.023438 C 27.054688 20.898438 26.8125 20.824219 26.558594 20.816406 Z M 26.546875 21.191406 C 26.734375 21.199219 26.917969 21.25 27.082031 21.347656 L 41.636719 29.949219 C 42.382812 30.390625 42.382812 31.449219 41.636719 31.890625 L 27.082031 40.492188 C 26.320312 40.941406 25.378906 40.402344 25.378906 39.519531 L 25.378906 22.320312 C 25.378906 21.679688 25.90625 21.171875 26.546875 21.191406 Z M 26.546875 21.191406 "/>
<path style=" stroke:none;fill-rule:nonzero;fill:rgb(12.941177%,12.941177%,12.941177%);fill-opacity:1;" d="M 31.675781 11.40625 C 31.675781 11.40625 27.34375 11.40625 22.464844 11.550781 C 17.589844 11.691406 12.199219 11.964844 9.960938 12.554688 L 9.957031 12.554688 C 7.550781 13.214844 5.582031 15.1875 4.921875 17.640625 L 4.917969 17.640625 C 4.339844 19.84375 4.058594 23.175781 3.914062 25.96875 C 3.773438 28.761719 3.773438 31.011719 3.773438 31.011719 C 3.773438 31.011719 3.773438 33.277344 3.914062 36.074219 C 4.058594 38.875 4.339844 42.203125 4.921875 44.386719 C 5.578125 46.835938 7.511719 48.765625 9.960938 49.425781 C 12.222656 50.039062 17.609375 50.324219 22.484375 50.472656 C 27.355469 50.621094 31.675781 50.621094 31.675781 50.621094 C 31.675781 50.621094 36.011719 50.621094 40.886719 50.476562 C 45.765625 50.335938 51.15625 50.0625 53.394531 49.472656 C 55.84375 48.8125 57.773438 46.882812 58.433594 44.433594 L 58.433594 44.429688 C 59.015625 42.226562 59.296875 38.898438 59.4375 36.101562 C 59.582031 33.3125 59.582031 31.0625 59.582031 31.058594 C 59.582031 31.058594 59.59375 28.796875 59.457031 25.992188 C 59.320312 23.1875 59.039062 19.847656 58.433594 17.640625 C 57.773438 15.191406 55.84375 13.261719 53.394531 12.601562 C 51.15625 11.988281 45.765625 11.703125 40.890625 11.554688 C 36.011719 11.40625 31.675781 11.40625 31.675781 11.40625 Z M 31.675781 11.863281 C 31.675781 11.863281 36.007812 11.863281 40.875 12.011719 C 45.742188 12.160156 51.183594 12.46875 53.273438 13.039062 L 53.277344 13.042969 C 55.566406 13.65625 57.375 15.464844 57.992188 17.757812 C 58.574219 19.886719 58.863281 23.222656 59 26.015625 C 59.136719 28.808594 59.125 31.058594 59.125 31.058594 C 59.125 31.058594 59.125 33.300781 58.984375 36.082031 C 58.839844 38.859375 58.554688 42.1875 57.992188 44.316406 C 57.375 46.605469 55.566406 48.414062 53.277344 49.03125 C 51.183594 49.582031 45.746094 49.878906 40.875 50.019531 C 36.007812 50.164062 31.675781 50.164062 31.675781 50.164062 C 31.675781 50.164062 27.359375 50.164062 22.496094 50.015625 C 17.632812 49.867188 12.195312 49.558594 10.078125 48.984375 C 7.785156 48.367188 5.976562 46.558594 5.359375 44.269531 C 4.800781 42.164062 4.511719 38.839844 4.371094 36.050781 C 4.230469 33.265625 4.226562 31.011719 4.226562 31.011719 C 4.226562 31.011719 4.230469 28.773438 4.371094 25.992188 C 4.511719 23.210938 4.800781 19.886719 5.359375 17.757812 C 5.976562 15.46875 7.835938 13.609375 10.078125 12.996094 C 12.175781 12.445312 17.613281 12.148438 22.480469 12.003906 C 27.347656 11.863281 31.675781 11.863281 31.675781 11.863281 Z M 31.675781 11.863281 "/>
<path style=" stroke:none;fill-rule:nonzero;fill:rgb(0%,0%,0%);fill-opacity:0.235294;" d="M 42.28125 31.613281 C 42.179688 31.867188 41.996094 32.09375 41.730469 32.25 L 27.179688 40.851562 C 26.300781 41.371094 25.191406 40.738281 25.191406 39.71875 L 25.191406 40.707031 C 25.191406 41.726562 26.300781 42.359375 27.179688 41.839844 L 41.730469 33.242188 C 42.328125 32.886719 42.511719 32.183594 42.28125 31.613281 Z M 42.28125 31.613281 "/>
</g>
</svg>
